X: 20983
T: Julia Clifford's
R: jig
M: 6/8
K: Amixolydian
|:e|f2 f gfg|fdf gfg|eaa ecA|B2 A Ace|
fd/e/f gfg|fdf gfg|eaa ecA|B2 A A2:|
|:B|cA/B/c ece|faf ece|f/^g/af ecA|BcB B2 d|
cAc ece|f/^g/af e2 e|faf ecA|B2 A A2:|

